X: 16162
T: Green Linnet, The
R: reel
M: 4/4
K: Amixolydian
A2 ae cB A/B/c|BG B/c/d gd c/B/G|A2 ae cBAc|BGdB fc:|
|:A2 B/c/d ecBA|BGDd gdBG|1 ABcd ecBc|BGdB f2:|2 Ac B/c/d cedf|edBc A2||
Acae cBAc|B2 GB gdBc|A2 ae cBAc|BGdB cA-:|
A2 cd ecBA|BGBd gdBc|1 A2 cd ecBA|BGdB cA:|2 A2 Bd cedg|ae (3dcB A2||
A2 ae cBAc|BAGB gdBc|A2 ae cBAc|BGdB cA:|
ABcd ec c/B/A|BGdB gdBG|1 A2 B/c/d e2 c/B/A|BGdB cA:|2 AcBd cedf|edcB A2||

